img/wires11.svg

<svg fill="none" height="35" viewBox="0 0 143 35" width="143" xmlns="http://www.w3.org/2000/svg"><path d="m142.477 1.06152h-19.212c-4.677 0-9.081 2.20549-11.881 5.95107l-15.9063 21.27121c-2.8008 3.7455-7.2039 5.951-11.8808 5.951h-42.4592c-6.732 0-13.2365-2.4361-18.3121-6.8584l-7.2094-6.2814c-5.2754-4.5964-2.0247-13.27593 4.9722-13.27593 7.0703 0 10.2803 8.83273 4.8597 13.37213l-8.2971 6.9483c-4.7019 3.9376-10.63923 6.0953-16.772092 6.0953" stroke="#fff500" stroke-linecap="round" stroke-linejoin="round" stroke-width=".741761"/></svg>

<svg width="143" height="35" viewBox="0 0 143 35" fill="none" xmlns="http://www.w3.org/2000/svg">
<path d="M142.477 1.06152L123.265 1.06152C118.588 1.06152 114.184 3.26701 111.384 7.01259L95.4777 28.2838C92.6769 32.0293 88.2738 34.2348 83.5969 34.2348L41.1377 34.2348C34.4057 34.2348 27.9012 31.7987 22.8256 27.3764L15.6162 21.095C10.3408 16.4986 13.5915 7.81907 20.5884 7.81907V7.81907C27.6587 7.81907 30.8687 16.6518 25.4481 21.1912L17.151 28.1395C12.4491 32.0771 6.51177 34.2348 0.378908 34.2348V34.2348" stroke="#FFF500" stroke-width="0.741761" stroke-linecap="round" stroke-linejoin="round"/>
</svg>
